X:3415
T:Mazurka
M:3/4
O:France
R:Mazurka
Z:Richard Robinson 
%%TUNEURL: http://www.leeds.ac.uk/music/Info/RRTuneBk/gettune/000006ad.html
%%ID:000006ad
K:G
D2|A2A2D2|B2B2A>B|c>B A>G F>E|E2D2D2|\
A2A2D2| B2B2 A>B| c>B A>G F>A|G4:|\
D2|B2 B>G F>G| A4 A>B| c>B A>G A>c| B2G2 B>c|\
d4 G>F | E4 A>B| c>B A>G F>A | G4:|
